polaris-icons/icons/new-icons/ChannelsMajor.svg

<svg width="20" height="20" viewBox="0 0 20 20" fill="none" xmlns="http://www.w3.org/2000/svg">
<path fill-rule="evenodd" clip-rule="evenodd" d="M6.25 3.5C5.69772 3.5 5.25 3.94772 5.25 4.5V6.5C5.25 7.05228 5.69772 7.5 6.25 7.5H6.5V9H6.25C4.73122 9 3.5 10.2312 3.5 11.75V13.75C3.5 15.2688 4.73122 16.5 6.25 16.5H8.25C9.76878 16.5 11 15.2688 11 13.75V13.5H12.5V13.75C12.5 14.3023 12.9477 14.75 13.5 14.75H15.5C16.0523 14.75 16.5 14.3023 16.5 13.75V11.75C16.5 11.1977 16.0523 10.75 15.5 10.75H13.5C12.9477 10.75 12.5 11.1977 12.5 11.75V12H11V11.75C11 11.2631 10.8735 10.8058 10.6515 10.4092L13.5607 7.5H15.5C16.0523 7.5 16.5 7.05228 16.5 6.5V4.5C16.5 3.94772 16.0523 3.5 15.5 3.5H13.5C12.9477 3.5 12.5 3.94772 12.5 4.5V6.43939L9.5909 9.3485C9.19421 9.12653 8.73688 9 8.25 9H8V7.5H8.25C8.80228 7.5 9.25 7.05228 9.25 6.5V4.5C9.25 3.94772 8.80228 3.5 8.25 3.5H6.25ZM6.75 5V6H7.75V5H6.75ZM6.25 10.5C5.55964 10.5 5 11.0596 5 11.75V13.75C5 14.4404 5.55964 15 6.25 15H8.25C8.94036 15 9.5 14.4404 9.5 13.75V11.75C9.5 11.0596 8.94036 10.5 8.25 10.5H6.25ZM14 6V5H15V6H14ZM14 12.25V13.25H15V12.25H14Z" fill="#4A4A4A"/>
</svg>

<svg viewBox="0 0 20 20" xmlns="http://www.w3.org/2000/svg"><path fill-rule="evenodd" d="M6.25 3.5a1 1 0 0 0-1 1v2a1 1 0 0 0 1 1h.25v1.5h-.25a2.75 2.75 0 0 0-2.75 2.75v2a2.75 2.75 0 0 0 2.75 2.75h2a2.75 2.75 0 0 0 2.75-2.75v-.25h1.5v.25a1 1 0 0 0 1 1h2a1 1 0 0 0 1-1v-2a1 1 0 0 0-1-1h-2a1 1 0 0 0-1 1v.25h-1.5v-.25c0-.487-.127-.944-.348-1.34l2.909-2.91h1.939a1 1 0 0 0 1-1v-2a1 1 0 0 0-1-1h-2a1 1 0 0 0-1 1v1.94l-2.91 2.908a2.738 2.738 0 0 0-1.34-.348h-.25v-1.5h.25a1 1 0 0 0 1-1v-2a1 1 0 0 0-1-1h-2Zm.5 1.5v1h1v-1h-1Zm-.5 5.5c-.69 0-1.25.56-1.25 1.25v2c0 .69.56 1.25 1.25 1.25h2c.69 0 1.25-.56 1.25-1.25v-2c0-.69-.56-1.25-1.25-1.25h-2Zm7.75-4.5v-1h1v1h-1Zm0 6.25v1h1v-1h-1Z" fill="#5C5F62"/></svg>
